yogo/img/logo-text.svg

<svg width="91" height="21" viewBox="0 0 91 21" fill="none" xmlns="http://www.w3.org/2000/svg">
<path d="M6.58965 20V12.1514L0 0.713228H4.25916L8.43796 7.97255L12.6168 0.713228H16.8759L10.2863 12.1514V20H6.58965ZM25.9526 20.4018C24.0239 20.4018 22.3586 19.9821 20.9568 19.1428C19.5639 18.3035 18.4879 17.1293 17.7289 15.6203C16.9789 14.1113 16.6039 12.3567 16.6039 10.3566C16.6039 8.3565 16.9789 6.60194 17.7289 5.09293C18.4879 3.58392 19.5639 2.40975 20.9568 1.57042C22.3586 0.731087 24.0239 0.311421 25.9526 0.311421C27.8813 0.311421 29.5421 0.731087 30.935 1.57042C32.3369 2.40975 33.4128 3.58392 34.1629 5.09293C34.9218 6.60194 35.3013 8.3565 35.3013 10.3566C35.3013 12.3567 34.9218 14.1113 34.1629 15.6203C33.4128 17.1293 32.3369 18.3035 30.935 19.1428C29.5421 19.9821 27.8813 20.4018 25.9526 20.4018ZM25.9526 16.973C27.1759 16.9909 28.1938 16.7275 29.0063 16.1828C29.8189 15.6382 30.4261 14.8658 30.8279 13.8657C31.2386 12.8657 31.444 11.696 31.444 10.3566C31.444 9.01725 31.2386 7.85648 30.8279 6.87428C30.4261 5.89208 29.8189 5.12865 29.0063 4.58398C28.1938 4.0393 27.1759 3.75804 25.9526 3.74018C24.7293 3.72232 23.7114 3.98573 22.8989 4.5304C22.0863 5.07507 21.4747 5.84744 21.0639 6.84749C20.6621 7.84755 20.4612 9.01725 20.4612 10.3566C20.4612 11.696 20.6621 12.8568 21.0639 13.8389C21.4747 14.8211 22.0863 15.5846 22.8989 16.1293C23.7114 16.6739 24.7293 16.9552 25.9526 16.973ZM37.2302 20V16.3569H40.8733V20H37.2302ZM53.2573 20.4018C52.043 20.4018 50.8866 20.1875 49.7884 19.7589C48.6901 19.3214 47.7168 18.6785 46.8686 17.8302C46.0292 16.982 45.364 15.9328 44.8729 14.6827C44.3908 13.4327 44.1497 11.9906 44.1497 10.3566C44.1497 8.22257 44.5559 6.40997 45.3685 4.91882C46.19 3.41873 47.2882 2.27581 48.6633 1.49006C50.0473 0.704299 51.5786 0.311421 53.2573 0.311421C55.7396 0.311421 57.6906 0.887345 59.1103 2.03919C60.53 3.19104 61.481 4.8206 61.9631 6.92785L58.2397 7.4636C57.8915 6.33854 57.32 5.44117 56.5253 4.77149C55.7396 4.09288 54.7306 3.74911 53.4984 3.74018C52.2751 3.72232 51.2572 3.98573 50.4447 4.5304C49.6321 5.07507 49.0205 5.84744 48.6097 6.84749C48.2079 7.84755 48.007 9.01725 48.007 10.3566C48.007 11.696 48.2079 12.8568 48.6097 13.8389C49.0205 14.8211 49.6321 15.5846 50.4447 16.1293C51.2572 16.6739 52.2751 16.9552 53.4984 16.973C54.3288 16.9909 55.0788 16.848 55.7485 16.5445C56.4271 16.2409 56.9986 15.7632 57.4629 15.1113C57.9272 14.4595 58.2576 13.6247 58.454 12.6067H55.4003V9.79408H62.3382C62.356 9.91016 62.3694 10.1155 62.3783 10.4102C62.3873 10.7048 62.3917 10.8745 62.3917 10.9191C62.3917 12.7675 62.0167 14.4059 61.2667 15.8346C60.5166 17.2632 59.4585 18.3838 58.0924 19.1964C56.7263 20 55.1146 20.4018 53.2573 20.4018ZM73.3533 20.4018C71.4247 20.4018 69.7594 19.9821 68.3575 19.1428C66.9646 18.3035 65.8887 17.1293 65.1297 15.6203C64.3796 14.1113 64.0046 12.3567 64.0046 10.3566C64.0046 8.3565 64.3796 6.60194 65.1297 5.09293C65.8887 3.58392 66.9646 2.40975 68.3575 1.57042C69.7594 0.731087 71.4247 0.311421 73.3533 0.311421C75.282 0.311421 76.9428 0.731087 78.3358 1.57042C79.7376 2.40975 80.8136 3.58392 81.5636 5.09293C82.3226 6.60194 82.7021 8.3565 82.7021 10.3566C82.7021 12.3567 82.3226 14.1113 81.5636 15.6203C80.8136 17.1293 79.7376 18.3035 78.3358 19.1428C76.9428 19.9821 75.282 20.4018 73.3533 20.4018ZM73.3533 16.973C74.5766 16.9909 75.5945 16.7275 76.4071 16.1828C77.2196 15.6382 77.8268 14.8658 78.2286 13.8657C78.6394 12.8657 78.8447 11.696 78.8447 10.3566C78.8447 9.01725 78.6394 7.85648 78.2286 6.87428C77.8268 5.89208 77.2196 5.12865 76.4071 4.58398C75.5945 4.0393 74.5766 3.75804 73.3533 3.74018C72.1301 3.72232 71.1122 3.98573 70.2996 4.5304C69.4871 5.07507 68.8754 5.84744 68.4647 6.84749C68.0629 7.84755 67.862 9.01725 67.862 10.3566C67.862 11.696 68.0629 12.8568 68.4647 13.8389C68.8754 14.8211 69.4871 15.5846 70.2996 16.1293C71.1122 16.6739 72.1301 16.9552 73.3533 16.973ZM86.7151 20V16.7855H90.3582V20H86.7151ZM86.7151 15.1783V0.713228H90.3582V15.1783H86.7151Z" fill="white"/>
</svg>

<svg xmlns="http://www.w3.org/2000/svg" width="91" height="21" fill="none"><path fill="#fff" d="M6.59 20v-7.849L0 .713h4.26l4.178 7.26 4.179-7.26h4.259l-6.59 11.438V20zm19.363.402q-2.894 0-4.996-1.26-2.09-1.258-3.228-3.522-1.125-2.263-1.125-5.263t1.125-5.264q1.139-2.264 3.228-3.523Q23.06.311 25.953.311t4.982 1.26q2.103 1.259 3.228 3.522Q35.3 7.357 35.3 10.357t-1.138 5.263q-1.125 2.265-3.228 3.523-2.09 1.26-4.982 1.259m0-3.429q1.834.027 3.053-.79 1.22-.817 1.822-2.317.616-1.5.616-3.51t-.616-3.482q-.604-1.473-1.822-2.29t-3.053-.844-3.054.79q-1.219.817-1.835 2.317-.603 1.5-.603 3.51t.603 3.482q.615 1.473 1.835 2.29 1.218.817 3.054.844M37.23 20v-3.643h3.643V20zm16.027.402a9.5 9.5 0 0 1-3.469-.643 8.6 8.6 0 0 1-2.92-1.929q-1.258-1.272-1.995-3.147-.723-1.875-.723-4.326 0-3.201 1.218-5.438 1.233-2.25 3.295-3.429Q50.74.311 53.257.311q3.724 0 5.853 1.728 2.13 1.728 2.853 4.889l-3.723.536q-.523-1.688-1.715-2.693-1.177-1.018-3.027-1.03-1.834-.028-3.053.79-1.22.816-1.835 2.316-.603 1.5-.603 3.51t.603 3.482q.615 1.473 1.835 2.29 1.218.817 3.053.844 1.245.027 2.25-.428 1.019-.456 1.715-1.434.697-.977.991-2.504H55.4V9.794h6.938q.027.174.04.616t.014.51q0 2.772-1.125 4.915a8.35 8.35 0 0 1-3.175 3.361q-2.048 1.206-4.835 1.206m20.096 0q-2.893 0-4.995-1.26-2.09-1.258-3.228-3.522-1.125-2.263-1.125-5.263t1.125-5.264q1.139-2.264 3.228-3.523Q70.46.311 73.353.311t4.983 1.26q2.103 1.259 3.228 3.522 1.138 2.264 1.138 5.264t-1.138 5.263q-1.125 2.265-3.228 3.523-2.09 1.26-4.983 1.259m0-3.429q1.836.027 3.054-.79 1.22-.817 1.822-2.317.615-1.5.616-3.51 0-2.009-.616-3.482-.603-1.473-1.822-2.29-1.218-.817-3.054-.844-1.834-.026-3.053.79-1.22.817-1.835 2.317-.603 1.5-.603 3.51t.603 3.482q.615 1.473 1.835 2.29 1.218.817 3.053.844M86.715 20v-3.215h3.643V20zm0-4.822V.713h3.643v14.465z"/></svg>
